X:6
T:Adios, Pueblo de mi Waychu
R:waynu
O:Peru
Z:id:hn-waynu-6
M:4/4
L:1/8
Q:1/4=90
K:Em
[M:4/4] Be ee/ed/c B2 |[M:3/4] ce BB/AG/F |[M:2/4] E/e/B/e/ Be :|
|:[M:4/4] Ac BB/AA/c B2 |[M:3/4] ce BB/AG/F |1 [M:2/4] E/e/B/e/ Be :|
[2 [M:3/4] E3/ed/c B2 |: ce BB/AG/F |1 [M:3/4] E3/ed/c B2 :|
[2 [M:2/4] E/e/B/e/ Be ||
W:|: Adi\'os, pueblo de mi Waychu,
W:pueblo donde yo he nacido. :|
W:|: Adi\'os, casita querida.
W:Ya me voy, ya me estoy yendo. :|
W:|: Palomita! Ya me voy, ya me estoy yendo. :|
W:
W:|: Hasta mi zampo\~na llora,
W:siento un ca\~no vac\'io. :|
W:|: C\'omo no he de llorar yo,
W:si me quitan lo que es m\'io. :|
W:|: Palomita! Ya me voy, ya me estoy yendo. :|

